img/svg/maintenance-1.svg

<svg width="43" height="56" viewBox="0 0 43 56" fill="none" xmlns="http://www.w3.org/2000/svg">
<path d="M22.2612 19.6545H20.2969V22.9284H22.2612V19.6545Z" fill="white"/>
<path d="M17.6791 16.3813H15.7148V18.3456H17.6791V16.3813Z" fill="white"/>
<path d="M26.8451 16.3809H24.8809V18.3451H26.8451V16.3809Z" fill="white"/>
<path d="M40.4422 44.1475V43.3846C40.4514 41.2287 39.7663 39.127 38.4884 37.3906C37.2105 35.6542 35.4076 34.3752 33.3465 33.7429L25.736 31.3531V28.1637C26.6786 27.6845 27.5407 27.0612 28.2912 26.3163C29.7383 24.8699 30.7098 23.0166 31.0762 21.0037H31.2508C32.1058 21.0015 32.9332 20.7014 33.5908 20.1551C34.2484 19.6088 34.6951 18.8504 34.854 18.0103C35.0128 17.1703 34.874 16.3011 34.4613 15.5524C34.0486 14.8036 33.3879 14.2221 32.5928 13.9079C32.6203 13.862 32.6571 13.8068 32.6847 13.7517L32.7858 13.5586C32.9609 13.2112 33.0599 12.8305 33.0762 12.4418C33.0926 12.0531 33.0259 11.6653 32.8807 11.3044C32.7355 10.9435 32.515 10.6177 32.2339 10.3486C31.9529 10.0796 31.6178 9.87356 31.2508 9.74422V4.1283C31.2491 3.49032 31.0266 2.87262 30.6211 2.38005C30.2157 1.88748 29.6523 1.5504 29.0265 1.42604L22.758 0.166818C21.6864 -0.0399808 20.5851 -0.0399808 19.5135 0.166818L13.2449 1.42604C12.621 1.55243 12.0598 1.89036 11.6562 2.38271C11.2526 2.87507 11.0313 3.49166 11.0298 4.1283V9.74422C10.6629 9.87356 10.3278 10.0796 10.0467 10.3486C9.76569 10.6177 9.54521 10.9435 9.39997 11.3044C9.25473 11.6653 9.18808 12.0531 9.20444 12.4418C9.2208 12.8305 9.31981 13.2112 9.49487 13.5586L9.58678 13.7517C9.62369 13.8016 9.65746 13.8538 9.68789 13.9079C8.8928 14.2221 8.23207 14.8036 7.81938 15.5524C7.40668 16.3011 7.26783 17.1703 7.4267 18.0103C7.58556 18.8504 8.03222 19.6088 8.68984 20.1551C9.34745 20.7014 10.1749 21.0015 11.0298 21.0037H11.2045C11.4896 22.5254 12.119 23.9617 13.0446 25.2027C13.9702 26.4437 15.1674 27.4566 16.5446 28.1637V31.3531L8.9342 33.7337C6.87315 34.3692 5.07091 35.6503 3.79331 37.3879C2.51571 39.1256 1.8304 41.2279 1.83846 43.3846V44.1475C1.30117 44.3357 0.835641 44.6862 0.506279 45.1506C0.176917 45.615 0 46.1702 0 46.7395C0 47.3088 0.176917 47.864 0.506279 48.3284C0.835641 48.7927 1.30117 49.1432 1.83846 49.3315V54.0926C1.83846 54.3364 1.9353 54.5701 2.10767 54.7425C2.28004 54.9149 2.51383 55.0117 2.7576 55.0117H39.5231C39.7668 55.0117 40.0006 54.9149 40.173 54.7425C40.3454 54.5701 40.4422 54.3364 40.4422 54.0926V49.3315C40.9795 49.1432 41.445 48.7927 41.7744 48.3284C42.1037 47.864 42.2807 47.3088 42.2807 46.7395C42.2807 46.1702 42.1037 45.615 41.7744 45.1506C41.445 44.6862 40.9795 44.3357 40.4422 44.1475ZM31.2508 15.4888C31.7379 15.4903 32.2047 15.6844 32.5491 16.0289C32.8935 16.3733 33.0877 16.84 33.0891 17.3271C33.0855 17.8135 32.8907 18.279 32.5467 18.623C32.2027 18.9669 31.7373 19.1618 31.2508 19.1654V15.4888ZM11.0298 19.1654C10.5434 19.1618 10.0779 18.9669 9.73396 18.623C9.38999 18.279 9.19516 17.8135 9.19155 17.3271C9.19301 16.84 9.38715 16.3733 9.73158 16.0289C10.076 15.6844 10.5427 15.4903 11.0298 15.4888V19.1654ZM28.4934 34.1473L30.3317 34.7172V43.0629C30.3317 43.3067 30.2349 43.5405 30.0625 43.7129C29.8901 43.8852 29.6563 43.9821 29.4126 43.9821C29.1688 43.9821 28.935 43.8852 28.7626 43.7129C28.5903 43.5405 28.4934 43.3067 28.4934 43.0629V34.1473ZM28.0522 3.09886L28.6681 3.22754C28.8774 3.26805 29.0661 3.38005 29.2019 3.54437C29.3377 3.70869 29.4122 3.91511 29.4126 4.1283V9.39495L26.8666 9.00891L28.0522 3.09886ZM19.8719 1.96833C20.7072 1.81207 21.5643 1.81207 22.3995 1.96833L26.2507 2.7404L25.0559 8.72398L23.5117 8.4942C21.9374 8.24602 20.334 8.24602 18.7598 8.4942L17.2248 8.72398L16.0391 2.7404L19.8719 1.96833ZM12.8681 4.1283C12.8691 3.91668 12.9426 3.71181 13.0765 3.54788C13.2103 3.38394 13.3963 3.27087 13.6034 3.22754L14.2284 3.09886L15.4141 9.00891L12.8681 9.39495V4.1283ZM11.232 12.9244L11.1401 12.7406C11.0758 12.6103 11.0431 12.4666 11.0447 12.3213C11.0463 12.176 11.0822 12.0331 11.1493 11.9042C11.2138 11.7751 11.3085 11.6634 11.4253 11.5786C11.5421 11.4939 11.6776 11.4384 11.8203 11.4171L19.0447 10.3049C20.434 10.0966 21.8466 10.0966 23.236 10.3049L30.4604 11.4171C30.6026 11.4396 30.7375 11.4953 30.8543 11.5796C30.971 11.6639 31.0664 11.7745 31.1325 11.9024C31.1987 12.0303 31.2339 12.1719 31.2353 12.316C31.2367 12.46 31.2042 12.6023 31.1405 12.7314L31.0486 12.9244C30.9592 13.1034 30.814 13.2486 30.635 13.3381C30.456 13.4276 30.2528 13.4566 30.056 13.4208L23.2819 12.1891C21.8658 11.9318 20.4149 11.9318 18.9987 12.1891L12.2247 13.4208C12.0278 13.4566 11.8246 13.4276 11.6456 13.3381C11.4666 13.2486 11.3215 13.1034 11.232 12.9244ZM12.8681 19.1654V15.1671L19.3296 13.9906C20.5277 13.7777 21.7541 13.7808 22.951 13.9998L29.4126 15.1671V19.1654C29.4126 21.3593 28.541 23.4634 26.9897 25.0147C25.4383 26.5661 23.3343 27.4376 21.1403 27.4376C18.9464 27.4376 16.8423 26.5661 15.291 25.0147C13.7396 23.4634 12.8681 21.3593 12.8681 19.1654ZM23.8977 28.8898V32.0333C23.8977 32.7646 23.6072 33.466 23.0901 33.9831C22.573 34.5002 21.8716 34.7907 21.1403 34.7907C20.409 34.7907 19.7077 34.5002 19.1905 33.9831C18.6734 33.466 18.3829 32.7646 18.3829 32.0333V28.8807C19.2786 29.143 20.2071 29.2761 21.1403 29.2759C22.0728 29.2739 23.0006 29.144 23.8977 28.8898ZM15.6255 33.5683L16.7193 33.2282C16.9784 34.2029 17.5523 35.0647 18.3519 35.6795C19.1514 36.2943 20.1317 36.6276 21.1403 36.6276C22.1489 36.6276 23.1292 36.2943 23.9288 35.6795C24.7283 35.0647 25.3023 34.2029 25.5614 33.2282L26.6552 33.5683V40.3055H15.6255V33.5683ZM11.949 34.7172L13.7872 34.1473V43.0629C13.7872 43.3067 13.6904 43.5405 13.518 43.7129C13.3457 43.8852 13.1119 43.9821 12.8681 43.9821C12.6243 43.9821 12.3905 43.8852 12.2182 43.7129C12.0458 43.5405 11.949 43.3067 11.949 43.0629V34.7172ZM8.27242 53.1734H3.67673V49.4969H8.27242V53.1734ZM8.27242 47.6586H2.7576C2.51383 47.6586 2.28004 47.5618 2.10767 47.3894C1.9353 47.217 1.83846 46.9833 1.83846 46.7395C1.83846 46.4957 1.9353 46.2619 2.10767 46.0896C2.28004 45.9172 2.51383 45.8204 2.7576 45.8204H8.27242V47.6586ZM8.27242 43.0629V43.9821H3.67673V43.3846C3.67112 41.6199 4.23263 39.9 5.27848 38.4785C6.32433 37.057 7.79919 36.0091 9.48568 35.4893L10.1107 35.2962V40.471C9.57507 40.6618 9.11124 41.0129 8.78231 41.4767C8.45339 41.9405 8.27535 42.4944 8.27242 43.0629ZM32.17 53.1734H10.1107V43.0629C10.1107 43.7943 10.4012 44.4956 10.9183 45.0127C11.4354 45.5298 12.1368 45.8204 12.8681 45.8204C13.5994 45.8204 14.3008 45.5298 14.8179 45.0127C15.335 44.4956 15.6255 43.7943 15.6255 43.0629V42.1438H26.6552V43.0629C26.6552 43.7943 26.9457 44.4956 27.4628 45.0127C27.9799 45.5298 28.6813 45.8204 29.4126 45.8204C30.1439 45.8204 30.8452 45.5298 31.3623 45.0127C31.8795 44.4956 32.17 43.7943 32.17 43.0629V53.1734ZM32.17 40.471V35.2962L32.795 35.4893C34.4815 36.0091 35.9563 37.057 37.0022 38.4785C38.048 39.9 38.6095 41.6199 38.6039 43.3846V43.9821H34.0082V43.0629C34.0053 42.4944 33.8273 41.9405 33.4984 41.4767C33.1694 41.0129 32.7056 40.6618 32.17 40.471ZM38.6039 53.1734H34.0082V49.4969H38.6039V53.1734ZM39.5231 47.6586H34.0082V45.8204H39.5231C39.7668 45.8204 40.0006 45.9172 40.173 46.0896C40.3454 46.2619 40.4422 46.4957 40.4422 46.7395C40.4422 46.9833 40.3454 47.217 40.173 47.3894C40.0006 47.5618 39.7668 47.6586 39.5231 47.6586Z" fill="white"/>
</svg>

<svg width="43" height="56" viewBox="0 0 43 56" fill="none" xmlns="http://www.w3.org/2000/svg"><path d="M22.261 19.654h-1.964v3.274h1.964v-3.274zm-4.581-3.273h-1.965v1.965h1.964V16.38zm9.165-.001h-1.964v1.965h1.964v-1.964z" fill="#fff"/><path d="M40.442 44.148v-.763a10.04 10.04 0 00-7.096-9.642l-7.61-2.39v-3.19a10.17 10.17 0 002.555-1.847 10.058 10.058 0 002.785-5.312h.175a3.677 3.677 0 001.342-7.096c.027-.046.064-.101.092-.156l.1-.193a2.736 2.736 0 00-1.534-3.815V4.128a2.762 2.762 0 00-2.225-2.702L22.758.166a8.561 8.561 0 00-3.244 0l-6.27 1.26a2.764 2.764 0 00-2.214 2.702v5.616a2.739 2.739 0 00-1.535 3.815l.092.193c.037.05.07.102.1.156a3.676 3.676 0 001.343 7.096h.175a10.15 10.15 0 005.34 7.16v3.19l-7.61 2.38a10.06 10.06 0 00-7.097 9.65v.764a2.746 2.746 0 000 5.183v4.762a.92.92 0 00.92.919h36.765a.92.92 0 00.92-.92v-4.76a2.748 2.748 0 000-5.184zm-9.191-28.66a1.844 1.844 0 011.838 1.84 1.852 1.852 0 01-1.838 1.837V15.49zM11.03 19.166a1.852 1.852 0 01-1.838-1.838 1.844 1.844 0 011.838-1.838v3.676zm17.463 14.982l1.839.57v8.346a.92.92 0 11-1.839 0v-8.916zM28.053 3.1l.615.129a.92.92 0 01.745.9v5.267l-2.546-.386 1.185-5.91zm-8.181-1.13a6.873 6.873 0 012.527 0l3.852.771-1.195 5.984-1.544-.23a15.257 15.257 0 00-4.752 0l-1.535.23-1.186-5.984 3.833-.772zm-7.004 2.16a.924.924 0 01.735-.901l.625-.13 1.186 5.91-2.546.387V4.128zm-1.636 8.795l-.092-.183a.925.925 0 01.01-.837.899.899 0 01.67-.487l7.225-1.112a14.134 14.134 0 014.191 0l7.224 1.112a.918.918 0 01.68 1.314l-.091.193a.924.924 0 01-.993.497l-6.774-1.232a11.98 11.98 0 00-4.283 0l-6.774 1.232a.925.925 0 01-.993-.497zm1.636 6.241v-3.998l6.462-1.176a10.203 10.203 0 013.62.008l6.462 1.167v3.998a8.272 8.272 0 01-16.545 0zm11.03 9.725v3.143a2.757 2.757 0 11-5.515 0v-3.152a9.804 9.804 0 002.757.395c.933-.002 1.86-.132 2.758-.386zm-8.272 4.678l1.093-.34a4.574 4.574 0 008.842 0l1.094.34v6.738h-11.03v-6.738zm-3.677 1.15l1.838-.57v8.915a.92.92 0 11-1.838 0v-8.346zM8.272 53.172H3.677v-3.676h4.595v3.676zm0-5.514H2.758a.919.919 0 110-1.839h5.514v1.839zm0-4.596v.92H3.677v-.598a8.235 8.235 0 015.809-7.896l.625-.193v5.175a2.767 2.767 0 00-1.839 2.592zm23.898 10.11H10.11v-10.11a2.757 2.757 0 105.516 0v-.92h11.03v.92a2.757 2.757 0 105.514 0v10.11zm0-12.702v-5.175l.625.193a8.234 8.234 0 015.809 7.896v.597h-4.596v-.92a2.767 2.767 0 00-1.838-2.591zm6.434 12.702h-4.596v-3.676h4.596v3.676zm.92-5.514h-5.516V45.82h5.515a.92.92 0 010 1.839z" fill="#fff"/></svg>
